packages/icons/svg/Media_ReduceScreen_32px.svg

<svg xmlns="http://www.w3.org/2000/svg" viewBox="0 0 32 32"><path d="M10 29a1 1 0 01-1-1v-5H4a1 1 0 010-2h6a1 1 0 011 1v6a1 1 0 01-1 1zM28 11h-6a1 1 0 01-1-1V4a1 1 0 012 0v5h5a1 1 0 010 2zM11 10a1 1 0 01-1 1H4a1 1 0 010-2h5V4a1 1 0 012 0zM22 29a1 1 0 01-1-1v-6a1 1 0 011-1h6a1 1 0 010 2h-5v5a1 1 0 01-1 1zM19 20h-6a1 1 0 01-1-1v-6a1 1 0 011-1h6a1 1 0 011 1v6a1 1 0 01-1 1zm-5-2h4v-4h-4z"/></svg>

<svg xmlns="http://www.w3.org/2000/svg" viewBox="0 0 32 32"><defs></defs><g id="Icon"><g id="Name-2" ><path  d="M10,29a1,1,0,0,1-1-1V23H4a1,1,0,0,1,0-2h6a1,1,0,0,1,1,1v6A1,1,0,0,1,10,29Z"/><path  d="M28,11H22a1,1,0,0,1-1-1V4a1,1,0,0,1,2,0V9h5a1,1,0,0,1,0,2Z"/><path  d="M11,10a1,1,0,0,1-1,1H4A1,1,0,0,1,4,9H9V4a1,1,0,0,1,2,0Z"/><path  d="M22,29a1,1,0,0,1-1-1V22a1,1,0,0,1,1-1h6a1,1,0,0,1,0,2H23v5A1,1,0,0,1,22,29Z"/><path  d="M19,20H13a1,1,0,0,1-1-1V13a1,1,0,0,1,1-1h6a1,1,0,0,1,1,1v6A1,1,0,0,1,19,20Zm-5-2h4V14H14Z"/></g></g></svg>
